svg/fluentui-system-icons/ic_fluent_number_circle_4_24_regular.svg

<svg width="24" height="24" viewBox="0 0 24 24" fill="none" xmlns="http://www.w3.org/2000/svg">
<path d="M3.5 12C3.5 7.30558 7.30558 3.5 12 3.5C16.6944 3.5 20.5 7.30558 20.5 12C20.5 16.6944 16.6944 20.5 12 20.5C7.30558 20.5 3.5 16.6944 3.5 12ZM12 2C6.47715 2 2 6.47715 2 12C2 17.5228 6.47715 22 12 22C17.5228 22 22 17.5228 22 12C22 6.47715 17.5228 2 12 2ZM14.5 7.68811C14.5 6.59119 13.0703 6.17002 12.4757 7.09177L8.31876 13.535C7.91092 14.1671 8.36474 15 9.11704 15H13V16.25C13 16.6642 13.3358 17 13.75 17C14.1642 17 14.5 16.6642 14.5 16.25V15H15.25C15.6642 15 16 14.6642 16 14.25C16 13.8358 15.6642 13.5 15.25 13.5H14.5V7.68811ZM13 9.04594V13.5H10.1264L13 9.04594Z" fill="#212121"/>
</svg>

<svg xmlns="http://www.w3.org/2000/svg" width="24" height="24"><path d="M3.5 12a8.5 8.5 0 1 1 17 0 8.5 8.5 0 0 1-17 0ZM12 2C6.477 2 2 6.477 2 12s4.477 10 10 10 10-4.477 10-10S17.523 2 12 2Zm2.5 5.688c0-1.097-1.43-1.518-2.024-.596l-4.157 6.443A.95.95 0 0 0 9.117 15H13v1.25a.75.75 0 0 0 1.5 0V15h.75a.75.75 0 0 0 0-1.5h-.75V7.688ZM13 9.046V13.5h-2.874L13 9.046Z"/></svg>
